!!!COM: Music21
!!!OTL: Valse
!!!OMV: pezas_valses_valse-6_valse-partitura.musicxml
**kern
*I"Bagpipes
*I'Bag
*clefG^2
*k[]
*M3/4
=1
!LO:TX:a:t=Presto
*MM184
!LO:TX:a:t=[quarter]=184
4cc
4ee
4gg
=||
4.ccc
8bb
8aaL
8ggJ
=
2ff
4aa
=
2gg
4ee
=
2cc
8bL
8ccJ
=
2dd
8ddL
8eeJ
=
4ff
4ee
4dd
=
2gg
4ee
=
4cc
4ee
4gg
=
4.ccc
8bb
8aaL
8ggJ
=
2ff
4aa
=
2gg
4ee
!!linebreak:original
=
2cc
8bL
8ccJ
!!linebreak:original
=
2dd
8ddL
8eeJ
=
4ff
4ee
4dd
=
4cc
4ee
4gg
=||
8ccc
8r
4r
4r
=||
4.ccc
8bb
8aaL
8ggJ
=
2ff
4aa
=
2gg
4ee
=
2cc
8bL
8ccJ
=
2dd
8ddL
8eeJ
=
4ff
4ee
4dd
=
2gg
4ee
=
4cc
4ee
4gg
!!linebreak:original
=
4.ccc
8bb
8aaL
8ggJ
=
2ff
4aa
=
2gg
4ee
=
2cc
8bL
8ccJ
!!linebreak:original
=
2dd
8ddL
8eeJ
=
4ff
4ee
4dd
=
4cc
4ee
4gg
=||
8ccc
8r
4r
4r
=||
!LO:TX:a:t=Fine
[2.ccc
=
4ccc]
4bb
4aa
=
[2.gg
=
4gg]
8aaL
8ggJ
8ffL
8eeJ
=
[2.gg
=
4gg]
8aaL
8ggJ
8ffL
8eeJ
=
2.gg
=
4cc
4ee
4gg
=||
[2.ccc
!!linebreak:original
=
4ccc]
4bb
4aa
=
[2.gg
=
4gg]
8aaL
8ggJ
8ffL
8eeJ
=
[2.gg
=
4gg]
8aaL
8ggJ
8ffL
8eeJ
=
2.gg
=
4cc
4ee
4gg
=||
*-
